X: 23964
T: Lochiel's Awa' Tae France
R: reel
M: 4/4
K: Amixolydian
a|eAA2 e2d<g|B<GG<G B<dd>a|eAA2 e2d<g|B<AA2 a>ee<a|
eAA2 e2d<g|B<Gd>G B<dd>f|e>Af>d e2d<g|B<AA2 a>ee<f||
d>ef>g a2g<f|g>ed>B g>dd>e|d>ef>g a2 g<f|g>ec2 a>ee<f|
d>ef>g a2 g<f|g>ed>c d>ef>g|a>ef<a e2d<g|B<AA2 a>ee<a||
eAA2 e>Ad>A|B<GG<G B<dd>a|e<AA2 e>Ad>A|B<AA2 a>ef>d|
eAA2 e>Ad>A|B<Gd>G B<dd>f|e<gf>d e<gd<g|B<AA2 a>ee<f||
d>ef>g a>fg>e|fdd2 g>dd<e|d>ef>g a>fg>e|a>ec<e a>ee<f|
d>ef>g f>ga>f|g>ed>c d>ef>g|a>ef<a e<gd<g|B<AA2 a>ee||
a|eAA2 e2dg|BGGG Bdda|eAA2 e2dg|BAA2 aeea|
eAA2 e2dg|BGdG Bddf|eAfd e2dg|BAA2 aeef||
defg a2gf|gedB gdde|defg a2 gf|gec2 aeef|
defg a2 gf|gedc defg|aefa e2dg|BAA2 aeea||
eAA2 eAdA|BGGG Bdda|eAA2 eAdA|BAA2 aefd|
eAA2 eAdA|BGdG Bddf|egfd egdg|BAA2 aeef||
defg afge|fdd2 gdde|defg afge|aece aeef|
defg fgaf|gedc defg|aefa egdg|BAA2 aee||

